X:1
T:Pols fra Elverum
R:Polska
O:Norge
Z:Karl Ljungkvist, 2013-02-28
S:Efter Mats Berglund
M:8/8
L:1/8
K:D
|: AFA B3 A2 | (2:3:2FG E3 D2 | AFA B3 A2 | (2:3:2FG E3 D2:|
|: (2:3:2AA (2:3:2BB  cc | (2:3:2dd (2:3:2ee ff | (2:3:2ge (2:3:2fd ec | (2:3:2dB TB3 A2 |
 (2:3:2AA (2:3:2BB  cc | (2:3:2dd (2:3:2ee ff | (2:3:2ge (2:3:2fd ec | d3 d3-d2 :|

